src/icons/typescript.svg

<svg width="60" height="60" viewBox="0 0 60 60" fill="none" xmlns="http://www.w3.org/2000/svg">
<g clip-path="url(#clip0_173_284)">
<path d="M10.6266 22.0312H57.3469V56.5641H10.6266V22.0312Z" fill="white"/>
<path d="M0.703125 29.9578V59.2547H59.2969V0.66095H0.703125V29.9578ZM47.9203 27.6141C49.3237 27.9397 50.5992 28.6737 51.5859 29.7234C52.1292 30.289 52.6014 30.9186 52.9922 31.5984C52.9922 31.6735 50.4609 33.3844 48.9188 34.3406C48.8625 34.3781 48.6375 34.1344 48.3891 33.7641C48.1075 33.2783 47.7075 32.8718 47.2264 32.5824C46.7452 32.293 46.1986 32.1303 45.6375 32.1094C43.8609 31.9875 42.7172 32.9203 42.7266 34.4531C42.7119 34.8348 42.7993 35.2134 42.9797 35.55C43.3688 36.3609 44.0953 36.8438 46.3734 37.8281C50.5687 39.6328 52.3641 40.8234 53.4797 42.5156C54.7266 44.3906 55.0031 47.4188 54.1594 49.6594C53.2219 52.0969 50.925 53.7516 47.6766 54.3C46.1929 54.4699 44.6938 54.4542 43.2141 54.2531C40.9461 53.8793 38.8569 52.7904 37.2516 51.1453C36.7125 50.55 35.6625 48.9984 35.7281 48.8859C35.8992 48.7589 36.0794 48.6446 36.2672 48.5438L38.4375 47.3438L40.1203 46.3688L40.4719 46.8891C41.0652 47.7378 41.8203 48.461 42.6938 49.0172C44.5688 50.0016 47.1281 49.8656 48.3937 48.7266C48.8187 48.3092 49.0838 47.756 49.1429 47.1633C49.202 46.5706 49.0513 45.9759 48.7172 45.4828C48.2484 44.8313 47.3109 44.2828 44.6906 43.1391C41.6672 41.8359 40.3641 41.0297 39.1734 39.7453C38.4302 38.8978 37.8814 37.8978 37.5656 36.8156C37.3301 35.5793 37.2953 34.3131 37.4625 33.0656C38.0859 30.1453 40.275 28.1063 43.4719 27.5016C44.9524 27.3184 46.4521 27.3595 47.9203 27.6234V27.6141ZM34.1672 30.0703V32.4703H26.5594V54.1406H21.1641V32.4656H13.5375V30.1219C13.5137 29.3136 13.5325 28.5047 13.5938 27.6985C13.6313 27.6563 18.2812 27.6563 23.9062 27.6563H34.1391L34.1672 30.0703Z" fill="#007ACC"/>
</g>
<defs>
<clipPath id="clip0_173_284">
<rect width="60" height="60" fill="white"/>
</clipPath>
</defs>
</svg>

<svg xmlns="http://www.w3.org/2000/svg" width="60" height="60" fill="none"><g clip-path="url(#a)"><path fill="#fff" d="M10.627 22.031h46.72v34.533h-46.72V22.031Z"/><path fill="#007ACC" d="M.703 29.958v29.297h58.594V.66H.703v29.297Zm47.217-2.344a7.293 7.293 0 0 1 3.666 2.11 9.647 9.647 0 0 1 1.406 1.874c0 .076-2.531 1.786-4.073 2.743-.056.037-.281-.207-.53-.577a3.325 3.325 0 0 0-2.752-1.655c-1.776-.122-2.92.811-2.91 2.344-.015.382.072.76.253 1.097.389.81 1.115 1.294 3.393 2.278 4.196 1.805 5.991 2.995 7.107 4.688 1.247 1.875 1.523 4.903.68 7.143-.938 2.438-3.235 4.093-6.483 4.641-1.484.17-2.983.154-4.463-.047a10.78 10.78 0 0 1-5.962-3.108c-.54-.595-1.59-2.147-1.524-2.26a4.38 4.38 0 0 1 .54-.341l2.17-1.2 1.682-.975.352.52a7.866 7.866 0 0 0 2.222 2.128c1.875.985 4.434.849 5.7-.29a2.545 2.545 0 0 0 .323-3.244c-.469-.652-1.406-1.2-4.026-2.344-3.024-1.303-4.327-2.11-5.518-3.394a7.726 7.726 0 0 1-1.607-2.93 11.72 11.72 0 0 1-.104-3.75c.624-2.92 2.813-4.959 6.01-5.563 1.48-.184 2.98-.142 4.448.121v-.009ZM34.167 30.07v2.4H26.56v21.67h-5.395V32.467h-7.627v-2.344a23.025 23.025 0 0 1 .057-2.424c.037-.042 4.687-.042 10.312-.042H34.14l.028 2.414Z"/></g><defs><clipPath id="a"><path fill="#fff" d="M0 0h60v60H0z"/></clipPath></defs></svg>
